X:8
T: FAHR MER NET UEBER MEIN AECKERLE
N: E1005B
O: Europa, Mitteleuropa, Deutschland, Schwaben; Schweiz
R: Tanz - Lied
M: 3/8
L: 1/16
K: G
 | G3AG2 | G2B2d2 | A2F2D2
G3AG2 | G2B2d2 | A4z2
c3dc2 | c2e2g2 | d2B2G2
d3BG2 | D2E2F2 | G4z2

